X:1
T:Sebben Crudele
T:Antonio Caldara (1670-1736)
T:Antonio Caldara: Sebben crudele (Mélisande from http://www.musescore.com)
T:Antonio Caldara: Sebben crudele (Mélisande from http://www.musescore.com)
T:Antonio Caldara: Sebben crudele (Mélisande from http://www.musescore.com)
T:Antonio Caldara: Sebben crudele (Mélisande from http://www.musescore.com)
T:Antonio Caldara: Sebben crudele (Mélisande from http://www.musescore.com)
T:Antonio Caldara: Sebben crudele (Mélisande from http://www.musescore.com)
T:Antonio Caldara: Sebben crudele (Mélisande from http://www.musescore.com)
Z:Antonio Caldara: Sebben crudele
Z:(Mélisande from http://www.musescore.com)
%%score 1 { ( 2 3 ) | 4 }
L:1/8
Q:1/4=90
M:3/4
K:Eb
V:1 treble nm="Stem" snm="Stm."
V:2 treble nm="Piano" snm="Pno."
V:3 treble 
V:4 bass 
V:1
"^Allegretto grazioso" z6 | z6 | z6 | z6 |!p! G2 G2 c2 | (B3 A) G2 | A2 (FG) A2 | (!>!A2 G4) | %8
w: ||||Seb- ben cru-|de- * le,|mi fai _ lan-|guir, _|
 _F2 =F2!mp! G2 | (A3 G) F2 | D2 E2 F2 |!<(! G2 A2 B2!<)! |!>(! (AG) G2[Q:1/4=75] (F!>)!E) | %13
w: Sem- pre fe-|de- * le,|sem- pre fe-|de- le ti|vo- * glio a- *|
[Q:1/4=90] E6 | z6 | z6 | z6 | z6 |!mf! G2 =A2 B2 | !>!B4 =A2 |!<(! =A2 =B2 c2 | (!>!c4 _c2)!<)! | %22
w: mar.|||||Seb- ben cru-|de- le,|mi fai lan-|guir, _|
!f! c2 (!>!cB) (!>!BA) | (A G2)[Q:1/4=80] F!>(! (ED) | E2{DE} D3!>)! C |[Q:1/4=90] C6 | %26
w: sem- pre * fe- *|de- * le ti _|vo- glio a-|mar|
!mf! G2 =A2 B2 | B4 =A2 |!<(! =A2 =B2 c2 | (!>!c4 _c2)!<)! |!f! c2 (!>!cB) (!>!BA) | %31
w: Seb- ben cru-|de- le,|mi fai lan-|guir, _|sem- pre * fe- *|
 (A!>(! G2) F (ED) |[Q:1/4=80] E2{DE} D3!>)! C |[Q:1/4=90] C6 |!p! G2 G2 A2 | B4 E2 | %36
w: de- * le ti _|vo- glio a-|mar.|Con la lun-|ghez- za|
 A2 (AB) (GA) | F6 |!f! !>!B2 !>!d2 !>!B2 | !>!G4 G2 | !>!=A2 !>!c2 !>!A2 | _G4 D2 | %42
w: del mio * ser- *|vir|la tua fie-|rez- za,|la tua fie-|rez- za|
!>(! (G=A) B2 (BG)!>)! | G6 | !>!c2 !>!=A2 !>!G2 | _G4 D2 |[Q:1/4=80] (G=A) B2{GB} B>G | %47
w: sa- * pro stan- *|car,|la tua fie-|rez- za|sa- * pro stan- *|
[Q:1/4=90] G6 | z6 | z6 | z6 | z2 z4 |!p! G2 G2 c2 | (B3 A) G2 | A2 (FG) A2 | (!>!A2 G4) | %56
w: car|||||Seb- ben cru-|de- * le,|mi fai _ lan-|guir, _|
 =E2 F2 G2 | (A3 G) F2 | D2 E2 F2 |!<(! G2 A2!<)! B2 |!>(! (AG) G2 (F!>)!E) |[Q:1/4=90] E6 | %62
w: Sem- pre fe-|de- * le,|sem- pre fe-|de- le ti|vo- * glio a- *|mar.|
 z2 z4 | z2 z4 | z6 | z6 |!mf! G2 =A2 B2 | !>!B4 =A2 |!<(! =A2 =B2 c2 | (!>!c4 =B2)!<)! | %70
w: ||||Seb- ben cru-|de- le,|mi fai lan-|guir, _|
!f! c2 (!>!cB) (!>!BA) | (A G2) F (ED) |[Q:1/4=80]!>(! E2{DE} D3 C!>)! |[Q:1/4=90] C6 | %74
w: sem- pre * fe- *|de- * le ti _|vo- glio a-|mar|
!mf! G2 =A2 B2 | B4 =A2 |!<(! =A2 =B2 c2 | (!>!c4 =B2)!<)! |!f! c2 (!>!cB) (!>!BA) | %79
w: Seb- ben cru-|de- le,|mi fai lan-|guir, _|sem- pre * fe- *|
 (A G2)!>(! F (ED) |[Q:1/4=80] E2{DE} D !>!G3!>)! | C6- | C6 |] %83
w: de- * le ti _|vo- glio a-|mar.||
V:2
 !>!G2 !>!G2 !>!c2 | (!>!B3 A G2) |!p! (!>!A2 FG A2) | (!>!A2 G4) | z (C[EG]C[Ec]C) | %5
 z (B,[EB]B,[EG]B,) | z (B,[EFA]B,[DFA]B,) | ([DFA]B,[EG]B,[EG]B,) | ([C_F]G,[C=F]F,[CG]B,) | %9
 ([CA]A,[CA]A,[CF]A,) | ([B,D]F,[B,E]E,[B,F]A,) | ([B,G]G,[DF]A,[B,E]G,) | %12
 ([A,CE]F,[B,E]G,[B,D]A,) | [G,E](E,G,B,EF) |!f! !>!G2 !>!G2 !>!A2 | (!>!B3 A G2) | %16
 (!>!A2!p! FG [FA]2) | ([FA]2 G4) | G2 __B2 _B2 | (!>!B4 __B2) | __B2 _c2 =c2 | (c4 _c2) | %22
 c3 B2 A- | A G2 F ED | E2 D3 =C | [G,C](G,CDEF) | G2 __B2 _B2 | (!>!B4 __B2) | __B2 _c2 =c2 | %29
 (!>!c4 _c2) | c3 B2 A- | A G2 F ED | E2 D3 =C | [G,C]!<(!(G,CDE!<)!F) | z (C[EG]C[EA]C) | %35
 z (B,[EB]B,[EB]B,) | z (B,[FA]B,[EG]B,) | ([DF]B,[DF]B,[F__B]E) | !>!B2 !>!d2 !>!B2 | %39
 !>!B2 !>!B2 !>!G2 | !>!__B2 !>!c2 !>!B2 | !>!_G2 !>!__B2 !>!=G2 | !>!G2 !>!G2 !>!_G2 | G2 G2 G2 | %44
 !>!c2 !>!__B2 !>!G2 | !>!_G2 !>!__B2 !>!=G2 | !>!G2 !>!G2 !>!_G2 | [B,G](G,B,CDB) | %48
 !>!G2 !>!G2 !>!c2 | (!>!B3 A G2) | (!>!A2 F!p!G A2) | (A2 G4) | z (C[EG]C[Ec]C) | %53
 z (B,[EB]B,[EG]B,) | z (B,[EFA]B,[DFA]B,) | (!>![DFA]B,[EG]B,[EG]B,) | ([C_F]G,[C=F]F,[CG]B,) | %57
 ([CA]A,[CA]A,[CF]A,) | ([B,D]F,[B,E]E,[B,F]A,) | ([B,G]G,[DF]A,[B,E]G,) | %60
 ([A,CE]F,[B,E]G,[B,D]A,) | [G,E](E,G,B,EF) |!f! !>!G2 !>!G2 !>!A2 | (!>!B3 A G2) | %64
 (!>!A2 FG [FA]2) | ([FA]2 G4) |!mf! G2 __B2 _B2 | (!>!B4 __B2) | __B2 _c2 =c2 | (c4 _c2) | %70
 c3 B2 A- | A G2 F ED | E2 D3 =C | [G,C](G,CDEF) | G2 __B2 _B2 | (!>!B4 __B2) | __B2 _c2 =c2 | %77
 (!>!c4 _c2) |!f! c3 B2 A- | A G2 F ED | E2 D3 =C | [G,C](G,CDEG |!pp! c6) |] %83
V:3
 (ECECEC) | (EB,EB,EB,) | (EB,DB,DB,) | (DB,EB,EB,) | x6 | x6 | x6 | x6 | x6 | x6 | x6 | x6 | x6 | %13
 x6 | (EB,EB,EB,) | (EB,EB,EB,) | ([EF]B,DB,DB,) | (DB,ECEC) | (EB,E__B,EG,) | z (CFCFC) | %20
 (FCF_CF__B,) | z (DGDGD) | (CGFDEC) | D2 G,2 [G,C]2 | [A,C]2 C2 [G,_C]2 | x6 | (EB,E__B,EG,) | %27
 z (CFCFC) | (FCF_CF__B,) | z (DGDGD) | (CGFDEC) | D2 G,2 [G,C]2 | [A,C]2 C2 [G,_C]2 | x6 | x6 | %35
 x6 | x6 | x6 | ([DF]DFDFD) | (EB,EB,EB,) | (ECECEC) | (D__B,DB,D_B,) | (E__B,D_B,C__B,) | %43
 (G,B,EB,EB,) | (ECECEC) | (D__B,DB,D_B,) | (E__B,D_B,C__B,) | x6 | (ECECEC) | (EB,EB,EB,) | %50
 (EB,DB,DB,) | (DB,EB,EB,) | x6 | x6 | x6 | x6 | x6 | x6 | x6 | x6 | x6 | x6 | (EB,EB,EB,) | %63
 (EB,EB,E!p!B,) | ([EF]B,DB,DB,) | (DB,ECEC) | (EB,E__B,EG,) | z (CFCFC) | (FCF_CF__B,) | %69
 z (DGDGD) | (CGFDEC) | D2 G,2 [G,C]2 | [A,C]2 C2 [G,_C]2 | x6 | (EB,E__B,EG,) | z (CFCFC) | %76
 (FCF_CF__B,) | z (DGDGD) | (CGFDEC) | D2 G,2 [G,C]2 | [A,C]2 C2 [G,_C]2 | x6 | x6 |] %83
V:4
!f! (C,4 A,,2 | G,,4 E,,2 | F,,4 B,,2 | E,,6) |!p! C,4 A,,2 | G,,4 E,,2 | F,,2 B,,2 B,,,2 | E,,6 | %8
 C,2 A,,2 _F,,2 | F,,4 (A,,2 | B,,2 G,,2 D,,2 |!<(! E,,2 F,,2 G,,2!<)! |!>(! A,,2) B,,2 B,,,2!>)! | %13
!<(! E,,6!<)! | (C,4 A,,2 | G,,4 E,,2 | F,,4 B,,2 | E,,6) |!mf! E,6 |!<(! F,6 | F,6 | G,6!<)! | %22
!f! E,2 D,2 C,2 | _C,4 =C,2 | F,2 G,2 [G,,F,]2 |!<(! !arpeggio![C,,G,,E,]6!<)! |!mf! E,6 | F,6 | %28
!<(! F,6 | G,6!<)! |!f! E,2 D,2 C,2 |!>(! _C,4 =C,2 | F,2 G,2 [G,,F,]2!>)! | %33
 !arpeggio![C,,G,,E,]6 |!p! (C,4 A,,2) | G,,6 | (F,,2 D,,2 E,,2 | B,,2)!<(! B,,2 C,2!<)! |!f! D,6 | %39
 !>!E,2 !>!F,2 !>!E,2 | C,6 | !>!D,2 !>!C,2 !>!B,,2 | (C,2 D,2 D,,2 | E,,2) (!>!E,2 D,2) | C,6 | %45
 !>!D,2 !>!C,2 !>!B,,2 | (C,2 D,2 D,,2 | G,,6) |!f! (E,4 A,,2 | G,,4 E,,2 | F,,4 B,,2 | E,,6) | %52
!p! (C,4 A,,2 | G,,4 E,,2 | F,,2 B,,2 B,,,2 | E,,6) | C,2 A,,2 _F,,2 | F,,4 (A,,2 | %58
 B,,2 G,,2 D,,2 | E,,2 F,,2 G,,2 | A,,2) B,,2 B,,,2 | E,,6 | (C,4 A,,2 | G,,4 E,,2 | F,,4 B,,2 | %65
 E,,6) | E,6 | F,6 |!<(! F,6 | G,6!<)! |!f! E,2 D,2 C,2 | _C,4 =C,2 | F,2 G,2 [G,,F,]2 | %73
 !arpeggio![C,,G,,E,]6 |!mf! E,6 | F,6 | F,6 | G,6 | E,2 D,2 C,2 | _C,4 =C,2 | F,2 G,2 [G,,F,]2 | %81
 !arpeggio![C,,G,,E,]6- | [C,,G,,E,]6 |] %83

